static/img/kroki/cfd3e897bf0151a1f6a84d681b901cdd.svg

<?xml version="1.0" encoding="us-ascii" standalone="no"?><svg xmlns="http://www.w3.org/2000/svg" xmlns:xlink="http://www.w3.org/1999/xlink" contentStyleType="text/css" height="785px" preserveAspectRatio="none" style="width:326px;height:785px;" version="1.1" viewBox="0 0 326 785" width="326px" zoomAndPan="magnify"><defs/><g><!--class azure_resource--><g id="elem_azure_resource"><rect codeLine="22" fill="#3D176E" height="39.7891" id="azure_resource" rx="2.5" ry="2.5" style="stroke:#000D19;stroke-width:0.5;" width="168" x="79" y="438.76"/><ellipse cx="94" cy="458.6545" fill="#ADD1B2" rx="11" ry="11" style="stroke:#181818;stroke-width:1.0;"/><path d="M96.9688,464.2952 Q96.3906,464.592 95.75,464.7327 Q95.1094,464.8889 94.4063,464.8889 Q91.9063,464.8889 90.5781,463.2483 Q89.2656,461.592 89.2656,458.467 Q89.2656,455.342 90.5781,453.6858 Q91.9063,452.0295 94.4063,452.0295 Q95.1094,452.0295 95.75,452.1858 Q96.4063,452.342 96.9688,452.6389 L96.9688,455.3577 Q96.3438,454.7795 95.75,454.5139 Q95.1563,454.2327 94.5313,454.2327 Q93.1875,454.2327 92.5,455.3108 Q91.8125,456.3733 91.8125,458.467 Q91.8125,460.5608 92.5,461.6389 Q93.1875,462.7014 94.5313,462.7014 Q95.1563,462.7014 95.75,462.4358 Q96.3438,462.1545 96.9688,461.5764 L96.9688,464.2952 Z " fill="#000000"/><text fill="#D9B8FF" font-family="Helvetica" font-size="17" lengthAdjust="spacing" textLength="126" x="113" y="464.5398">azure_resource</text></g><!--class azure_security_partner_provider--><g id="elem_azure_security_partner_provider"><rect codeLine="24" fill="#3D176E" height="179.2734" id="azure_security_partner_provider" rx="2.5" ry="2.5" style="stroke:#000D19;stroke-width:0.5;" width="312" x="7" y="599.55"/><ellipse cx="22" cy="619.4445" fill="#ADD1B2" rx="11" ry="11" style="stroke:#181818;stroke-width:1.0;"/><path d="M24.9688,625.0852 Q24.3906,625.382 23.75,625.5227 Q23.1094,625.6789 22.4063,625.6789 Q19.9063,625.6789 18.5781,624.0383 Q17.2656,622.382 17.2656,619.257 Q17.2656,616.132 18.5781,614.4758 Q19.9063,612.8195 22.4063,612.8195 Q23.1094,612.8195 23.75,612.9758 Q24.4063,613.132 24.9688,613.4289 L24.9688,616.1477 Q24.3438,615.5695 23.75,615.3039 Q23.1563,615.0227 22.5313,615.0227 Q21.1875,615.0227 20.5,616.1008 Q19.8125,617.1633 19.8125,619.257 Q19.8125,621.3508 20.5,622.4289 Q21.1875,623.4914 22.5313,623.4914 Q23.1563,623.4914 23.75,623.2258 Q24.3438,622.9445 24.9688,622.3664 L24.9688,625.0852 Z " fill="#000000"/><text fill="#D9B8FF" font-family="Helvetica" font-size="17" lengthAdjust="spacing" textLength="270" x="41" y="625.3298">azure_security_partner_provider</text><line style="stroke:#000D19;stroke-width:0.5;" x1="8" x2="318" y1="639.3391" y2="639.3391"/><text fill="#D9B8FF" font-family="sans-serif" font-size="14" font-weight="bold" lengthAdjust="spacing" textLength="144" x="18" y="661.3342">connection_status</text><text fill="#D9B8FF" font-family="sans-serif" font-size="14" lengthAdjust="spacing" textLength="48" x="162" y="661.3342">: string</text><text fill="#D9B8FF" font-family="sans-serif" font-size="14" font-weight="bold" lengthAdjust="spacing" textLength="35" x="18" y="687.6311">etag</text><text fill="#D9B8FF" font-family="sans-serif" font-size="14" lengthAdjust="spacing" textLength="48" x="53" y="687.6311">: string</text><text fill="#D9B8FF" font-family="sans-serif" font-size="14" font-weight="bold" lengthAdjust="spacing" textLength="144" x="18" y="713.9279">provisioning_state</text><text fill="#D9B8FF" font-family="sans-serif" font-size="14" lengthAdjust="spacing" textLength="48" x="162" y="713.9279">: string</text><text fill="#D9B8FF" font-family="sans-serif" font-size="14" font-weight="bold" lengthAdjust="spacing" textLength="188" x="18" y="740.2248">security_provider_name</text><text fill="#D9B8FF" font-family="sans-serif" font-size="14" lengthAdjust="spacing" textLength="48" x="206" y="740.2248">: string</text><text fill="#D9B8FF" font-family="sans-serif" font-size="14" font-weight="bold" lengthAdjust="spacing" textLength="86" x="18" y="766.5217">virtual_hub</text><text fill="#D9B8FF" font-family="sans-serif" font-size="14" lengthAdjust="spacing" textLength="48" x="104" y="766.5217">: string</text></g><!--class resource--><g id="elem_resource"><rect codeLine="31" fill="#3D176E" height="310.7578" id="resource" rx="2.5" ry="2.5" style="stroke:#000D19;stroke-width:0.5;" width="227" x="49.5" y="7"/><ellipse cx="118.25" cy="26.8945" fill="#ADD1B2" rx="11" ry="11" style="stroke:#181818;stroke-width:1.0;"/><path d="M121.2188,32.5352 Q120.6406,32.832 120,32.9727 Q119.3594,33.1289 118.6563,33.1289 Q116.1563,33.1289 114.8281,31.4883 Q113.5156,29.832 113.5156,26.707 Q113.5156,23.582 114.8281,21.9258 Q116.1563,20.2695 118.6563,20.2695 Q119.3594,20.2695 120,20.4258 Q120.6563,20.582 121.2188,20.8789 L121.2188,23.5977 Q120.5938,23.0195 120,22.7539 Q119.4063,22.4727 118.7813,22.4727 Q117.4375,22.4727 116.75,23.5508 Q116.0625,24.6133 116.0625,26.707 Q116.0625,28.8008 116.75,29.8789 Q117.4375,30.9414 118.7813,30.9414 Q119.4063,30.9414 120,30.6758 Q120.5938,30.3945 121.2188,29.8164 L121.2188,32.5352 Z " fill="#000000"/><text fill="#D9B8FF" font-family="Helvetica" font-size="17" lengthAdjust="spacing" textLength="71" x="143.75" y="32.7798">resource</text><line style="stroke:#000D19;stroke-width:0.5;" x1="50.5" x2="275.5" y1="46.7891" y2="46.7891"/><text fill="#D9B8FF" font-family="sans-serif" font-size="14" font-weight="bold" lengthAdjust="spacing" textLength="29" x="60.5" y="68.7842">age</text><text fill="#D9B8FF" font-family="sans-serif" font-size="14" lengthAdjust="spacing" textLength="66" x="89.5" y="68.7842">: duration</text><text fill="#D9B8FF" font-family="sans-serif" font-size="14" font-weight="bold" lengthAdjust="spacing" textLength="43" x="60.5" y="95.0811">atime</text><text fill="#D9B8FF" font-family="sans-serif" font-size="14" lengthAdjust="spacing" textLength="70" x="103.5" y="95.0811">: datetime</text><text fill="#D9B8FF" font-family="sans-serif" font-size="14" font-weight="bold" lengthAdjust="spacing" textLength="43" x="60.5" y="121.3779">ctime</text><text fill="#D9B8FF" font-family="sans-serif" font-size="14" lengthAdjust="spacing" textLength="70" x="103.5" y="121.3779">: datetime</text><text fill="#D9B8FF" font-family="sans-serif" font-size="14" font-weight="bold" lengthAdjust="spacing" textLength="14" x="60.5" y="147.6748">id</text><text fill="#D9B8FF" font-family="sans-serif" font-size="14" lengthAdjust="spacing" textLength="48" x="74.5" y="147.6748">: string</text><text fill="#D9B8FF" font-family="sans-serif" font-size="14" font-weight="bold" lengthAdjust="spacing" textLength="33" x="60.5" y="173.9717">kind</text><text fill="#D9B8FF" font-family="sans-serif" font-size="14" lengthAdjust="spacing" textLength="48" x="93.5" y="173.9717">: string</text><text fill="#D9B8FF" font-family="sans-serif" font-size="14" font-weight="bold" lengthAdjust="spacing" textLength="90" x="60.5" y="200.2686">last_access</text><text fill="#D9B8FF" font-family="sans-serif" font-size="14" lengthAdjust="spacing" textLength="66" x="150.5" y="200.2686">: duration</text><text fill="#D9B8FF" font-family="sans-serif" font-size="14" font-weight="bold" lengthAdjust="spacing" textLength="90" x="60.5" y="226.5654">last_update</text><text fill="#D9B8FF" font-family="sans-serif" font-size="14" lengthAdjust="spacing" textLength="66" x="150.5" y="226.5654">: duration</text><text fill="#D9B8FF" font-family="sans-serif" font-size="14" font-weight="bold" lengthAdjust="spacing" textLength="48" x="60.5" y="252.8623">mtime</text><text fill="#D9B8FF" font-family="sans-serif" font-size="14" lengthAdjust="spacing" textLength="70" x="108.5" y="252.8623">: datetime</text><text fill="#D9B8FF" font-family="sans-serif" font-size="14" font-weight="bold" lengthAdjust="spacing" textLength="43" x="60.5" y="279.1592">name</text><text fill="#D9B8FF" font-family="sans-serif" font-size="14" lengthAdjust="spacing" textLength="48" x="103.5" y="279.1592">: string</text><text fill="#D9B8FF" font-family="sans-serif" font-size="14" font-weight="bold" lengthAdjust="spacing" textLength="34" x="60.5" y="305.4561">tags</text><text fill="#D9B8FF" font-family="sans-serif" font-size="14" lengthAdjust="spacing" textLength="171" x="94.5" y="305.4561">: dictionary[string, string]</text></g><!--reverse link resource to azure_resource--><g id="link_resource_azure_resource"><path codeLine="43" d="M163,335.84 C163,384.13 163,413.37 163,438.67 " fill="none" id="resource-backto-azure_resource" style="stroke:#FFAF37;stroke-width:2.0;"/><polygon fill="none" points="163,317.84,157,335.84,169,335.84,163,317.84" style="stroke:#FFAF37;stroke-width:2.0;"/></g><!--reverse link azure_resource to azure_security_partner_provider--><g id="link_azure_resource_azure_security_partner_provider"><path codeLine="44" d="M163,496.74 C163,523.24 163,554.92 163,599.24 " fill="none" id="azure_resource-backto-azure_security_partner_provider" style="stroke:#FFAF37;stroke-width:2.0;"/><polygon fill="none" points="163,478.74,157,496.74,169,496.74,163,478.74" style="stroke:#FFAF37;stroke-width:2.0;"/></g><!--SRC=[XPD1Rzim38Nl-HK2UZCQ85dHfHbswG8CxQKOrjs6mM0aEX5YImP5fKYt_VVHTjh9TjBURBvFV8-KlRK65LOr7rI5rHefJCBEkXe8AdLBv9zMllIaBee2Ygl5KFpg7RyBF425wWxBFRBLC2H-RAtUEGn1VKYaBw1t6_BHcQuz4xWW4ZfEg5K98Tmoarr7nYICMQvlYc983fjUN9dvuYEEC4y6wOZCPZCpNmwHTwtUdFkLUBJFgERfqXuyuoZcoAAbtapP44d8qQ0l-jcCty0OwpRgEgbzxpAHG-hL7xTW_5D35r26r2Om4de-rBWQJONB6rCiJiBtvs3TR4x1SoJC2OEFf57zdlpj2G5r9Ck7NDgoPCrhydlvpad8BDFUETHilSi30yUGPP_4cYI-gCYmwHNQiq5eUMqFO4_-xtNqo9rij8ViBN64Cj_6TL9_YPnCaMMmQO-QID04R2fiktP6d9ldPe8JDMjwdhBJVa6yE0UjvJyREBHAhCrniaIfJlYCffDzTHrjkrEWmyzEkpmolsJKro4__vbEfuFxcmokCsNENkK_]--></g></svg>

<svg xmlns="http://www.w3.org/2000/svg" width="326" height="785" viewBox="0 0 326 785"><rect width="168" height="39.789" x="79" y="438.76" fill="#3D176E" rx="2.5" ry="2.5" style="stroke:#000d19;stroke-width:.5"/><circle cx="94" cy="458.654" r="11" fill="#ADD1B2" style="stroke:#181818;stroke-width:1"/><path d="M96.969 464.295q-.578.297-1.219.438-.64.156-1.344.156-2.5 0-3.828-1.64-1.312-1.657-1.312-4.782t1.312-4.781q1.328-1.656 3.828-1.656.703 0 1.344.156.656.156 1.219.453v2.719q-.625-.579-1.219-.844-.594-.281-1.219-.281-1.344 0-2.031 1.078-.687 1.062-.687 3.156t.687 3.172q.688 1.062 2.031 1.062.625 0 1.219-.265.594-.281 1.219-.86z"/><text x="113" y="464.54" fill="#D9B8FF" font-family="Helvetica" font-size="17" textLength="126">azure_resource</text><rect width="312" height="179.273" x="7" y="599.55" fill="#3D176E" rx="2.5" ry="2.5" style="stroke:#000d19;stroke-width:.5"/><circle cx="22" cy="619.444" r="11" fill="#ADD1B2" style="stroke:#181818;stroke-width:1"/><path d="M24.969 625.085q-.578.297-1.219.438-.64.156-1.344.156-2.5 0-3.828-1.64-1.312-1.657-1.312-4.782t1.312-4.781q1.328-1.657 3.828-1.657.703 0 1.344.157.656.156 1.219.453v2.719q-.625-.579-1.219-.844-.594-.281-1.219-.281-1.343 0-2.031 1.078-.687 1.062-.687 3.156t.687 3.172q.688 1.062 2.031 1.062.625 0 1.219-.265.594-.282 1.219-.86z"/><text x="41" y="625.33" fill="#D9B8FF" font-family="Helvetica" font-size="17" textLength="270">azure_security_partner_provider</text><path d="M8 639.339h310" style="stroke:#000d19;stroke-width:.5"/><text x="18" y="661.334" fill="#D9B8FF" font-family="sans-serif" font-size="14" font-weight="bold" textLength="144">connection_status</text><text x="162" y="661.334" fill="#D9B8FF" font-family="sans-serif" font-size="14" textLength="48">: string</text><text x="18" y="687.631" fill="#D9B8FF" font-family="sans-serif" font-size="14" font-weight="bold" textLength="35">etag</text><text x="53" y="687.631" fill="#D9B8FF" font-family="sans-serif" font-size="14" textLength="48">: string</text><text x="18" y="713.928" fill="#D9B8FF" font-family="sans-serif" font-size="14" font-weight="bold" textLength="144">provisioning_state</text><text x="162" y="713.928" fill="#D9B8FF" font-family="sans-serif" font-size="14" textLength="48">: string</text><text x="18" y="740.225" fill="#D9B8FF" font-family="sans-serif" font-size="14" font-weight="bold" textLength="188">security_provider_name</text><text x="206" y="740.225" fill="#D9B8FF" font-family="sans-serif" font-size="14" textLength="48">: string</text><text x="18" y="766.522" fill="#D9B8FF" font-family="sans-serif" font-size="14" font-weight="bold" textLength="86">virtual_hub</text><text x="104" y="766.522" fill="#D9B8FF" font-family="sans-serif" font-size="14" textLength="48">: string</text><rect width="227" height="310.758" x="49.5" y="7" fill="#3D176E" rx="2.5" ry="2.5" style="stroke:#000d19;stroke-width:.5"/><circle cx="118.25" cy="26.895" r="11" fill="#ADD1B2" style="stroke:#181818;stroke-width:1"/><path d="M121.219 32.535q-.578.297-1.219.438-.64.156-1.344.156-2.5 0-3.828-1.64-1.312-1.657-1.312-4.782t1.312-4.781q1.328-1.656 3.828-1.656.703 0 1.344.156.656.156 1.219.453v2.719q-.625-.578-1.219-.844-.594-.281-1.219-.281-1.344 0-2.031 1.078-.687 1.062-.687 3.156t.687 3.172q.688 1.062 2.031 1.062.625 0 1.219-.265.594-.281 1.219-.86z"/><text x="143.75" y="32.78" fill="#D9B8FF" font-family="Helvetica" font-size="17" textLength="71">resource</text><path d="M50.5 46.789h225" style="stroke:#000d19;stroke-width:.5"/><text x="60.5" y="68.784" fill="#D9B8FF" font-family="sans-serif" font-size="14" font-weight="bold" textLength="29">age</text><text x="89.5" y="68.784" fill="#D9B8FF" font-family="sans-serif" font-size="14" textLength="66">: duration</text><text x="60.5" y="95.081" fill="#D9B8FF" font-family="sans-serif" font-size="14" font-weight="bold" textLength="43">atime</text><text x="103.5" y="95.081" fill="#D9B8FF" font-family="sans-serif" font-size="14" textLength="70">: datetime</text><text x="60.5" y="121.378" fill="#D9B8FF" font-family="sans-serif" font-size="14" font-weight="bold" textLength="43">ctime</text><text x="103.5" y="121.378" fill="#D9B8FF" font-family="sans-serif" font-size="14" textLength="70">: datetime</text><text x="60.5" y="147.675" fill="#D9B8FF" font-family="sans-serif" font-size="14" font-weight="bold" textLength="14">id</text><text x="74.5" y="147.675" fill="#D9B8FF" font-family="sans-serif" font-size="14" textLength="48">: string</text><text x="60.5" y="173.972" fill="#D9B8FF" font-family="sans-serif" font-size="14" font-weight="bold" textLength="33">kind</text><text x="93.5" y="173.972" fill="#D9B8FF" font-family="sans-serif" font-size="14" textLength="48">: string</text><text x="60.5" y="200.269" fill="#D9B8FF" font-family="sans-serif" font-size="14" font-weight="bold" textLength="90">last_access</text><text x="150.5" y="200.269" fill="#D9B8FF" font-family="sans-serif" font-size="14" textLength="66">: duration</text><text x="60.5" y="226.565" fill="#D9B8FF" font-family="sans-serif" font-size="14" font-weight="bold" textLength="90">last_update</text><text x="150.5" y="226.565" fill="#D9B8FF" font-family="sans-serif" font-size="14" textLength="66">: duration</text><text x="60.5" y="252.862" fill="#D9B8FF" font-family="sans-serif" font-size="14" font-weight="bold" textLength="48">mtime</text><text x="108.5" y="252.862" fill="#D9B8FF" font-family="sans-serif" font-size="14" textLength="70">: datetime</text><text x="60.5" y="279.159" fill="#D9B8FF" font-family="sans-serif" font-size="14" font-weight="bold" textLength="43">name</text><text x="103.5" y="279.159" fill="#D9B8FF" font-family="sans-serif" font-size="14" textLength="48">: string</text><text x="60.5" y="305.456" fill="#D9B8FF" font-family="sans-serif" font-size="14" font-weight="bold" textLength="34">tags</text><text x="94.5" y="305.456" fill="#D9B8FF" font-family="sans-serif" font-size="14" textLength="171">: dictionary[string, string]</text><path fill="none" d="M163 335.84v102.83m0-120.83-6 18h12zm0 178.9v102.5m0-120.5-6 18h12z" style="stroke:#ffaf37;stroke-width:2"/></svg>
